images/3233085.svg

<?xml version="1.0" encoding="UTF-8"?>
<svg xmlns="http://www.w3.org/2000/svg" xmlns:xlink="http://www.w3.org/1999/xlink" width="300pt" height="300pt" viewBox="0 0 300 300" version="1.1">
<defs>
<g>
<symbol overflow="visible" id="glyph0-0">
<path style="stroke:none;" d="M 0.546875 1.9375 L 0.546875 -7.75 L 6.046875 -7.75 L 6.046875 1.9375 Z M 1.171875 1.328125 L 5.4375 1.328125 L 5.4375 -7.140625 L 1.171875 -7.140625 Z M 1.171875 1.328125 "/>
</symbol>
<symbol overflow="visible" id="glyph0-1">
<path style="stroke:none;" d="M 1.078125 -8.015625 L 2.546875 -8.015625 L 6.09375 -1.3125 L 6.09375 -8.015625 L 7.15625 -8.015625 L 7.15625 0 L 5.6875 0 L 2.125 -6.703125 L 2.125 0 L 1.078125 0 Z M 1.078125 -8.015625 "/>
</symbol>
<symbol overflow="visible" id="glyph0-2">
<path style="stroke:none;" d="M 4.328125 -7.28125 C 3.546875 -7.28125 2.921875 -6.984375 2.453125 -6.390625 C 1.992188 -5.804688 1.765625 -5.007812 1.765625 -4 C 1.765625 -2.988281 1.992188 -2.1875 2.453125 -1.59375 C 2.921875 -1.007812 3.546875 -0.71875 4.328125 -0.71875 C 5.117188 -0.71875 5.742188 -1.007812 6.203125 -1.59375 C 6.660156 -2.1875 6.890625 -2.988281 6.890625 -4 C 6.890625 -5.007812 6.660156 -5.804688 6.203125 -6.390625 C 5.742188 -6.984375 5.117188 -7.28125 4.328125 -7.28125 Z M 4.328125 -8.171875 C 5.453125 -8.171875 6.351562 -7.789062 7.03125 -7.03125 C 7.707031 -6.28125 8.046875 -5.269531 8.046875 -4 C 8.046875 -2.738281 7.707031 -1.726562 7.03125 -0.96875 C 6.351562 -0.21875 5.453125 0.15625 4.328125 0.15625 C 3.203125 0.15625 2.300781 -0.21875 1.625 -0.96875 C 0.957031 -1.71875 0.625 -2.726562 0.625 -4 C 0.625 -5.269531 0.957031 -6.28125 1.625 -7.03125 C 2.300781 -7.789062 3.203125 -8.171875 4.328125 -8.171875 Z M 4.328125 -8.171875 "/>
</symbol>
</g>
</defs>
<g id="surface52505">
<rect x="0" y="0" width="300" height="300" style="fill:rgb(100%,100%,100%);fill-opacity:1;stroke:none;"/>
<path style="fill:none;stroke-width:1.2;stroke-linecap:butt;stroke-linejoin:miter;stroke:rgb(0%,0%,0%);stroke-opacity:1;stroke-miterlimit:10;" d="M 107.015625 118.605469 L 93.136719 117.3125 "/>
<path style="fill:none;stroke-width:1.2;stroke-linecap:butt;stroke-linejoin:miter;stroke:rgb(0%,0%,100%);stroke-opacity:1;stroke-miterlimit:10;" d="M 93.136719 117.3125 L 79.257812 116.023438 "/>
<path style="fill:none;stroke-width:1.2;stroke-linecap:butt;stroke-linejoin:miter;stroke:rgb(0%,0%,100%);stroke-opacity:1;stroke-miterlimit:10;" d="M 79.257812 116.023438 L 72.140625 104.039062 "/>
<path style="fill:none;stroke-width:1.2;stroke-linecap:butt;stroke-linejoin:miter;stroke:rgb(0%,0%,0%);stroke-opacity:1;stroke-miterlimit:10;" d="M 72.140625 104.039062 L 65.027344 92.050781 "/>
<path style="fill:none;stroke-width:1.2;stroke-linecap:butt;stroke-linejoin:miter;stroke:rgb(0%,0%,0%);stroke-opacity:1;stroke-miterlimit:10;" d="M 60.851562 136.964844 L 70.054688 126.496094 "/>
<path style="fill:none;stroke-width:1.2;stroke-linecap:butt;stroke-linejoin:miter;stroke:rgb(0%,0%,100%);stroke-opacity:1;stroke-miterlimit:10;" d="M 70.054688 126.496094 L 79.257812 116.023438 "/>
<path style=" stroke:none;fill-rule:nonzero;fill:rgb(100%,100%,100%);fill-opacity:1;" d="M 75.257812 109.523438 L 83.257812 109.523438 L 83.257812 122.523438 L 75.257812 122.523438 Z M 75.257812 109.523438 "/>
<g style="fill:rgb(0%,0%,100%);fill-opacity:1;">
  <use xlink:href="#glyph0-1" x="75.257812" y="119.424805"/>
</g>
<path style="fill:none;stroke-width:1.2;stroke-linecap:butt;stroke-linejoin:miter;stroke:rgb(0%,0%,0%);stroke-opacity:1;stroke-miterlimit:10;" d="M 65.027344 92.050781 L 37.828125 98.175781 "/>
<path style="fill:none;stroke-width:1.2;stroke-linecap:butt;stroke-linejoin:miter;stroke:rgb(0%,0%,0%);stroke-opacity:1;stroke-miterlimit:10;" d="M 63.75 99.0625 L 41.992188 103.960938 "/>
<path style="fill:none;stroke-width:1.2;stroke-linecap:butt;stroke-linejoin:miter;stroke:rgb(0%,0%,0%);stroke-opacity:1;stroke-miterlimit:10;" d="M 37.828125 98.175781 L 35.25 125.933594 "/>
<path style="fill:none;stroke-width:1.2;stroke-linecap:butt;stroke-linejoin:miter;stroke:rgb(0%,0%,0%);stroke-opacity:1;stroke-miterlimit:10;" d="M 35.25 125.933594 L 60.851562 136.964844 "/>
<path style="fill:none;stroke-width:1.2;stroke-linecap:butt;stroke-linejoin:miter;stroke:rgb(0%,0%,0%);stroke-opacity:1;stroke-miterlimit:10;" d="M 40.40625 121.011719 L 60.886719 129.835938 "/>
<path style="fill:none;stroke-width:1.2;stroke-linecap:butt;stroke-linejoin:miter;stroke:rgb(0%,0%,0%);stroke-opacity:1;stroke-miterlimit:10;" d="M 60.851562 136.964844 L 66.976562 164.164062 "/>
<path style="fill:none;stroke-width:1.2;stroke-linecap:butt;stroke-linejoin:miter;stroke:rgb(0%,0%,0%);stroke-opacity:1;stroke-miterlimit:10;" d="M 64.753906 161.75 L 54.507812 171.203125 "/>
<path style="fill:none;stroke-width:1.2;stroke-linecap:butt;stroke-linejoin:miter;stroke:rgb(100%,0%,0%);stroke-opacity:1;stroke-miterlimit:10;" d="M 54.507812 171.203125 L 44.261719 180.65625 "/>
<path style="fill:none;stroke-width:1.2;stroke-linecap:butt;stroke-linejoin:miter;stroke:rgb(0%,0%,0%);stroke-opacity:1;stroke-miterlimit:10;" d="M 69.199219 166.574219 L 58.957031 176.023438 "/>
<path style="fill:none;stroke-width:1.2;stroke-linecap:butt;stroke-linejoin:miter;stroke:rgb(100%,0%,0%);stroke-opacity:1;stroke-miterlimit:10;" d="M 58.957031 176.023438 L 48.710938 185.476562 "/>
<path style="fill:none;stroke-width:1.2;stroke-linecap:butt;stroke-linejoin:miter;stroke:rgb(0%,0%,0%);stroke-opacity:1;stroke-miterlimit:10;" d="M 66.976562 164.164062 L 80.285156 168.308594 "/>
<path style="fill:none;stroke-width:1.2;stroke-linecap:butt;stroke-linejoin:miter;stroke:rgb(0%,0%,100%);stroke-opacity:1;stroke-miterlimit:10;" d="M 80.285156 168.308594 L 93.59375 172.457031 "/>
<path style=" stroke:none;fill-rule:nonzero;fill:rgb(100%,100%,100%);fill-opacity:1;" d="M 37.484375 176.566406 L 46.484375 176.566406 L 46.484375 189.566406 L 37.484375 189.566406 Z M 37.484375 176.566406 "/>
<g style="fill:rgb(100%,0%,0%);fill-opacity:1;">
  <use xlink:href="#glyph0-2" x="37.484375" y="186.467773"/>
</g>
<path style="fill:none;stroke-width:1.2;stroke-linecap:butt;stroke-linejoin:miter;stroke:rgb(0%,0%,100%);stroke-opacity:1;stroke-miterlimit:10;" d="M 93.59375 172.457031 L 96.65625 186.054688 "/>
<path style="fill:none;stroke-width:1.2;stroke-linecap:butt;stroke-linejoin:miter;stroke:rgb(0%,0%,0%);stroke-opacity:1;stroke-miterlimit:10;" d="M 96.65625 186.054688 L 99.71875 199.65625 "/>
<path style="fill:none;stroke-width:1.2;stroke-linecap:butt;stroke-linejoin:miter;stroke:rgb(0%,0%,0%);stroke-opacity:1;stroke-miterlimit:10;" d="M 114.085938 153.554688 L 103.839844 163.007812 "/>
<path style="fill:none;stroke-width:1.2;stroke-linecap:butt;stroke-linejoin:miter;stroke:rgb(0%,0%,100%);stroke-opacity:1;stroke-miterlimit:10;" d="M 103.839844 163.007812 L 93.59375 172.457031 "/>
<path style=" stroke:none;fill-rule:nonzero;fill:rgb(100%,100%,100%);fill-opacity:1;" d="M 89.59375 165.957031 L 97.59375 165.957031 L 97.59375 178.957031 L 89.59375 178.957031 Z M 89.59375 165.957031 "/>
<g style="fill:rgb(0%,0%,100%);fill-opacity:1;">
  <use xlink:href="#glyph0-1" x="89.59375" y="175.858398"/>
</g>
<path style="fill:none;stroke-width:1.2;stroke-linecap:butt;stroke-linejoin:miter;stroke:rgb(0%,0%,0%);stroke-opacity:1;stroke-miterlimit:10;" d="M 99.71875 199.65625 L 126.332031 207.949219 "/>
<path style="fill:none;stroke-width:1.2;stroke-linecap:butt;stroke-linejoin:miter;stroke:rgb(0%,0%,0%);stroke-opacity:1;stroke-miterlimit:10;" d="M 126.332031 207.949219 L 146.824219 189.046875 "/>
<path style="fill:none;stroke-width:1;stroke-linecap:butt;stroke-linejoin:miter;stroke:rgb(0%,0%,0%);stroke-opacity:1;stroke-miterlimit:10;" d="M 140.699219 161.847656 L 140.699219 161.847656 M 140.839844 164.847656 L 141.859375 164.617188 M 140.980469 167.84375 L 143.015625 167.386719 M 141.121094 170.839844 L 144.171875 170.152344 M 141.261719 173.835938 L 145.332031 172.921875 M 141.402344 176.832031 L 146.488281 175.6875 M 141.542969 179.828125 L 147.644531 178.457031 M 141.683594 182.828125 L 148.804688 181.222656 M 141.824219 185.824219 L 149.960938 183.992188 M 141.964844 188.820312 L 151.117188 186.757812 M 142.023438 190.128906 L 151.625 187.964844 "/>
<path style="fill:none;stroke-width:1.2;stroke-linecap:butt;stroke-linejoin:miter;stroke:rgb(0%,0%,0%);stroke-opacity:1;stroke-miterlimit:10;" d="M 140.699219 161.847656 L 114.085938 153.554688 "/>
<path style="fill:none;stroke-width:1.2;stroke-linecap:butt;stroke-linejoin:miter;stroke:rgb(0%,0%,0%);stroke-opacity:1;stroke-miterlimit:10;" d="M 140.699219 161.847656 L 137.453125 134.160156 "/>
<path style="fill:none;stroke-width:1.2;stroke-linecap:butt;stroke-linejoin:miter;stroke:rgb(0%,0%,0%);stroke-opacity:1;stroke-miterlimit:10;" d="M 168.039062 167.316406 L 140.699219 161.847656 "/>
<path style="fill:none;stroke-width:1.2;stroke-linecap:butt;stroke-linejoin:miter;stroke:rgb(0%,0%,0%);stroke-opacity:1;stroke-miterlimit:10;" d="M 137.453125 134.160156 L 162.78125 122.515625 "/>
<path style="fill:none;stroke-width:1.2;stroke-linecap:butt;stroke-linejoin:miter;stroke:rgb(0%,0%,0%);stroke-opacity:1;stroke-miterlimit:10;" d="M 162.78125 122.515625 L 172.234375 132.761719 "/>
<path style="fill:none;stroke-width:1.2;stroke-linecap:butt;stroke-linejoin:miter;stroke:rgb(0%,0%,100%);stroke-opacity:1;stroke-miterlimit:10;" d="M 172.234375 132.761719 L 181.683594 143.007812 "/>
<path style="fill:none;stroke-width:1.2;stroke-linecap:butt;stroke-linejoin:miter;stroke:rgb(0%,0%,100%);stroke-opacity:1;stroke-miterlimit:10;" d="M 181.683594 143.007812 L 174.859375 155.160156 "/>
<path style="fill:none;stroke-width:1.2;stroke-linecap:butt;stroke-linejoin:miter;stroke:rgb(0%,0%,0%);stroke-opacity:1;stroke-miterlimit:10;" d="M 174.859375 155.160156 L 168.039062 167.316406 "/>
<path style="fill:none;stroke-width:1.2;stroke-linecap:butt;stroke-linejoin:miter;stroke:rgb(0%,0%,100%);stroke-opacity:1;stroke-miterlimit:10;" d="M 181.683594 143.007812 L 195.527344 141.382812 "/>
<path style="fill:none;stroke-width:1.2;stroke-linecap:butt;stroke-linejoin:miter;stroke:rgb(0%,0%,0%);stroke-opacity:1;stroke-miterlimit:10;" d="M 195.527344 141.382812 L 209.371094 139.757812 "/>
<path style=" stroke:none;fill-rule:nonzero;fill:rgb(100%,100%,100%);fill-opacity:1;" d="M 177.683594 136.507812 L 185.683594 136.507812 L 185.683594 149.507812 L 177.683594 149.507812 Z M 177.683594 136.507812 "/>
<g style="fill:rgb(0%,0%,100%);fill-opacity:1;">
  <use xlink:href="#glyph0-1" x="177.683594" y="146.40918"/>
</g>
<path style="fill:none;stroke-width:1.2;stroke-linecap:butt;stroke-linejoin:miter;stroke:rgb(0%,0%,0%);stroke-opacity:1;stroke-miterlimit:10;" d="M 209.371094 139.757812 L 226.03125 162.113281 "/>
<path style="fill:none;stroke-width:1.2;stroke-linecap:butt;stroke-linejoin:miter;stroke:rgb(0%,0%,0%);stroke-opacity:1;stroke-miterlimit:10;" d="M 216.296875 138.074219 L 229.625 155.960938 "/>
<path style="fill:none;stroke-width:1.2;stroke-linecap:butt;stroke-linejoin:miter;stroke:rgb(0%,0%,0%);stroke-opacity:1;stroke-miterlimit:10;" d="M 220.40625 114.15625 L 209.371094 139.757812 "/>
<path style="fill:none;stroke-width:1.2;stroke-linecap:butt;stroke-linejoin:miter;stroke:rgb(0%,0%,0%);stroke-opacity:1;stroke-miterlimit:10;" d="M 226.03125 162.113281 L 253.71875 158.867188 "/>
<path style="fill:none;stroke-width:1.2;stroke-linecap:butt;stroke-linejoin:miter;stroke:rgb(0%,0%,0%);stroke-opacity:1;stroke-miterlimit:10;" d="M 253.71875 158.867188 L 264.75 133.261719 "/>
<path style="fill:none;stroke-width:1.2;stroke-linecap:butt;stroke-linejoin:miter;stroke:rgb(0%,0%,0%);stroke-opacity:1;stroke-miterlimit:10;" d="M 248.796875 153.710938 L 257.621094 133.226562 "/>
<path style="fill:none;stroke-width:1.2;stroke-linecap:butt;stroke-linejoin:miter;stroke:rgb(0%,0%,0%);stroke-opacity:1;stroke-miterlimit:10;" d="M 264.75 133.261719 L 248.09375 110.910156 "/>
<path style="fill:none;stroke-width:1.2;stroke-linecap:butt;stroke-linejoin:miter;stroke:rgb(0%,0%,0%);stroke-opacity:1;stroke-miterlimit:10;" d="M 248.09375 110.910156 L 220.40625 114.15625 "/>
<path style="fill:none;stroke-width:1.2;stroke-linecap:butt;stroke-linejoin:miter;stroke:rgb(0%,0%,0%);stroke-opacity:1;stroke-miterlimit:10;" d="M 246.089844 117.75 L 223.9375 120.347656 "/>
</g>
</svg>

<svg xmlns="http://www.w3.org/2000/svg" xmlns:xlink="http://www.w3.org/1999/xlink" width="300pt" height="300pt" viewBox="0 0 300 300"><defs><symbol overflow="visible"><path d="M.547 1.938V-7.75h5.5v9.688zm.625-.61h4.266v-8.47H1.171zm0 0"/></symbol><symbol overflow="visible" id="a"><path d="M1.078-8.016h1.47l3.546 6.704v-6.704h1.062V0H5.688L2.124-6.703V0H1.078zm0 0"/></symbol><symbol overflow="visible" id="b"><path d="M4.328-7.28c-.78 0-1.406.296-1.875.89-.46.585-.687 1.382-.687 2.39 0 1.012.226 1.813.687 2.406.47.586 1.094.875 1.875.875.79 0 1.414-.288 1.875-.874.457-.593.688-1.394.688-2.406 0-1.008-.23-1.805-.687-2.39-.46-.594-1.086-.89-1.875-.89zm0-.892c1.125 0 2.024.383 2.703 1.14C7.708-6.28 8.048-5.27 8.048-4c0 1.262-.34 2.273-1.016 3.03C6.353-.22 5.454.157 4.33.157S2.3-.22 1.625-.97c-.668-.75-1-1.757-1-3.03 0-1.27.332-2.28 1-3.03.676-.76 1.578-1.142 2.703-1.142zm0 0"/></symbol></defs><g><path fill="#fff" d="M0 0h300v300H0z"/><path d="M107.016 118.605l-13.88-1.293" stroke-width="1.2" stroke="#000" stroke-miterlimit="10" fill="none"/><path d="M93.137 117.313l-13.88-1.29M79.258 116.023L72.14 104.04" stroke-width="1.2" stroke="#00f" stroke-miterlimit="10" fill="none"/><path d="M72.14 104.04l-7.113-11.99M60.852 136.965l9.203-10.47" stroke-width="1.2" stroke="#000" stroke-miterlimit="10" fill="none"/><path d="M70.055 126.496l9.203-10.473" stroke-width="1.2" stroke="#00f" stroke-miterlimit="10" fill="none"/><path d="M75.258 109.523h8v13h-8zm0 0" fill="#fff"/><use xlink:href="#a" x="75.258" y="119.425" fill="#00f"/><path d="M65.027 92.05l-27.2 6.126M63.75 99.063l-21.758 4.898M37.828 98.176l-2.578 27.758M35.25 125.934l25.602 11.03M40.406 121.012l20.48 8.824M60.852 136.965l6.125 27.2M64.754 161.75l-10.246 9.453" stroke-width="1.2" stroke="#000" stroke-miterlimit="10" fill="none"/><path d="M54.508 171.203l-10.246 9.453" stroke-width="1.2" stroke="#f00" stroke-miterlimit="10" fill="none"/><path d="M69.2 166.574l-10.243 9.45" stroke-width="1.2" stroke="#000" stroke-miterlimit="10" fill="none"/><path d="M58.957 176.023l-10.246 9.454" stroke-width="1.2" stroke="#f00" stroke-miterlimit="10" fill="none"/><path d="M66.977 164.164l13.308 4.145" stroke-width="1.2" stroke="#000" stroke-miterlimit="10" fill="none"/><path d="M80.285 168.31l13.31 4.147" stroke-width="1.2" stroke="#00f" stroke-miterlimit="10" fill="none"/><path d="M37.484 176.566h9v13h-9zm0 0" fill="#fff"/><use xlink:href="#b" x="37.484" y="186.468" fill="#f00"/><path d="M93.594 172.457l3.062 13.598" stroke-width="1.2" stroke="#00f" stroke-miterlimit="10" fill="none"/><path d="M96.656 186.055l3.063 13.6M114.086 153.555l-10.246 9.453" stroke-width="1.2" stroke="#000" stroke-miterlimit="10" fill="none"/><path d="M103.84 163.008l-10.246 9.45" stroke-width="1.2" stroke="#00f" stroke-miterlimit="10" fill="none"/><path d="M89.594 165.957h8v13h-8zm0 0" fill="#fff"/><use xlink:href="#a" x="89.594" y="175.858" fill="#00f"/><path d="M99.72 199.656l26.612 8.293M126.332 207.95l20.492-18.903" stroke-width="1.2" stroke="#000" stroke-miterlimit="10" fill="none"/><path d="M140.7 161.848m.14 3l1.02-.23m-.88 3.226l2.036-.457m-1.895 3.453l3.052-.688m-2.91 3.684l4.07-.914m-3.93 3.91l5.086-1.144m-4.945 4.14l6.102-1.37m-5.96 4.37l7.12-1.605m-6.98 4.6l8.136-1.83m-7.995 4.827l9.152-2.062m-9.094 3.37l9.602-2.163" stroke="#000" stroke-miterlimit="10" fill="none"/><path d="M140.7 161.848l-26.614-8.293M140.7 161.848l-3.247-27.688M168.04 167.316l-27.34-5.468M137.453 134.16l25.328-11.644M162.78 122.516l9.454 10.246" stroke-width="1.2" stroke="#000" stroke-miterlimit="10" fill="none"/><path d="M172.234 132.762l9.45 10.246M181.684 143.008l-6.825 12.152" stroke-width="1.2" stroke="#00f" stroke-miterlimit="10" fill="none"/><path d="M174.86 155.16l-6.82 12.156" stroke-width="1.2" stroke="#000" stroke-miterlimit="10" fill="none"/><path d="M181.684 143.008l13.843-1.625" stroke-width="1.2" stroke="#00f" stroke-miterlimit="10" fill="none"/><path d="M195.527 141.383l13.844-1.625" stroke-width="1.2" stroke="#000" stroke-miterlimit="10" fill="none"/><path d="M177.684 136.508h8v13h-8zm0 0" fill="#fff"/><use xlink:href="#a" x="177.684" y="146.409" fill="#00f"/><path d="M209.37 139.758l16.66 22.355M216.297 138.074l13.328 17.887M220.406 114.156l-11.035 25.602M226.03 162.113l27.69-3.246M253.72 158.867l11.03-25.605M248.797 153.71l8.824-20.483M264.75 133.262l-16.656-22.352M248.094 110.91l-27.688 3.246M246.09 117.75l-22.153 2.598" stroke-width="1.2" stroke="#000" stroke-miterlimit="10" fill="none"/></g></svg>
